public/showcase/resources/images/home/icon-themes.svg

<svg height="65" viewBox="0 0 65 65" width="65" xmlns="http://www.w3.org/2000/svg"><g fill="none" fill-rule="evenodd" transform=""><path d="m39.8478261 0h-14.6956522c-13.8478261 0-25.1521739 11.3043478-25.1521739 25.1521739v14.6956522c0 13.8478261 11.3043478 25.1521739 25.1521739 25.1521739h14.6956522c13.8478261 0 25.1521739-11.3043478 25.1521739-25.1521739v-14.6956522c0-13.8478261-11.3043478-25.1521739-25.1521739-25.1521739zm23.7391304 39.8478261c0 13.0706522-10.6684782 23.7391304-23.7391304 23.7391304h-14.6956522c-13.0706522 0-23.73913042-10.6684782-23.73913042-23.7391304v-14.6956522c0-13.0706522 10.66847822-23.73913042 23.73913042-23.73913042h14.6956522c13.0706522 0 23.7391304 10.66847822 23.7391304 23.73913042zm-4.2391304-.2826087c0 10.8804348-8.9021739 19.7826087-19.7826087 19.7826087h-14.1304348c-10.8804348 0-19.78260869-8.9021739-19.78260869-19.7826087v-14.1304348c0-10.8804348 8.90217389-19.78260869 19.78260869-19.78260869h14.1304348c10.8804348 0 19.7826087 8.90217389 19.7826087 19.78260869z" fill="#222" fill-rule="nonzero"/><path d="m43.2887475 20.0391531c.3208989.0037487.6361349.0506074.940045.1536966.8116854.273655 1.4780225.9034363 1.7932584 1.696286.1264719.3186394.1906517.6541479.2038652.9952794.0811685 6.4027768.241618 12.8093024-.0037753 19.2083305-.0188764.316765-.0830562.6260326-.2000899.9203054-.2963595.745991-.9060674 1.3532801-1.6573483 1.647553-.3208989.1255814-.6587865.1874349-1.0023371.2005553-7.1484944.0899688-14.3026517.268032-21.4454831-.0018743-.3190113-.0206179-.6304719-.0824714-.9287191-.198681-.7512809-.2942729-1.3609888-.901562-1.6573483-1.647553-.126472-.3186393-.1906517-.6541478-.2038652-.9952794-.0811686-6.4027768-.241618-12.8093023.0037753-19.2083304.0188764-.316765.0830561-.6260327.2000899-.9203055.2963595-.745991.9060674-1.3532801 1.6573483-1.6475529.3208988-.1255814.6587865-.1893093 1.002337-.2024297 7.0994158-.0880944 14.1988315 0 21.2982472 0zm2.0613034 5.0270045h-25.3094831c-.0830562 5.6605345-.1849888 11.3229434.0320899 16.9797292.0132134.2136759.0566292.423603.1359101.6241583.2019775.5060743.6172584.9184311 1.1269213 1.1189865.2170787.0843457.4454832.1274557.6795506.1349531 7.123955.0899688 14.253573.268032 21.3737528-.0018743.215191-.0131205.4266067-.0543561.6285843-.1330788.5096629-.2005554.9249438-.6129122 1.1269213-1.1189865.0868315-.2174245.1283596-.4442207.1377978-.67664.0717303-5.6417911.2057528-11.2873308.067955-16.9272475zm-21.4832359 16.8991322c1.9669213-.3130163 4.8097078-.3448802 6.8370337-2.3579312.8381123-.8322111.8381123-2.1836168 0-3.0158279-.8381124-.832211-2.1991012-.832211-3.0372135 0-2.0273259 2.013051-1.6082697 4.1666783-3.7998202 5.3737591zm5.732764-6.9069767c.6550112-1.3457827 1.8404494-2.9558487 3.3920899-4.4965637 3.0542022-3.032697 6.3783371-4.6577577 7.418427-3.6268657 1.0382022 1.0327664-.5983821 4.3334953-3.6525843 7.3661923-1.5459775 1.535092-3.1599101 2.7084346-4.5133483 3.3607081-.0207641-.1461992-.052854-.2923985-.0943821-.434849-.0868314-.2886498-.215191-.5660535-.383191-.8172163-.0868314-.12933-.1849887-.2492884-.2869213-.3673724-.1094832-.1143353-.1094832-.1124609-.2227416-.2211732-.2755955-.2342936-.571955-.4311003-.9098427-.5660534-.2397303-.0974662-.4907865-.1630684-.7475056-.1968067z" fill="#fff"/></g></svg>

<?xml version="1.0" encoding="UTF-8"?>
<svg width="65px" height="65px" viewBox="0 0 65 65" version="1.1" xmlns="http://www.w3.org/2000/svg" xmlns:xlink="http://www.w3.org/1999/xlink">
    <!-- Generator: sketchtool 45.2 (43514) - http://www.bohemiancoding.com/sketch -->
    <title>6331514B-91A6-4B0A-8188-4FB48BACDA87</title>
    <desc>Created with sketchtool.</desc>
    <defs></defs>
    <g id="Page-1" stroke="none" stroke-width="1" fill="none" fill-rule="evenodd">
        <g id="PrimeReact-Showcase---Homepage" transform="translate(-958.000000, -592.000000)">
            <g id="homepage" transform="translate(301.000000, 70.000000)">
                <g id="features" transform="translate(20.000000, 350.000000)">
                    <g id="info-box" transform="translate(92.000000, 171.000000)">
                        <g id="themes" transform="translate(480.000000, 1.000000)">
                            <g id="icon-themes" transform="translate(65.000000, 0.000000)">
                                <path d="M39.8478261,0 L25.1521739,0 C11.3043478,0 0,11.3043478 0,25.1521739 L0,39.8478261 C0,53.6956522 11.3043478,65 25.1521739,65 L39.8478261,65 C53.6956522,65 65,53.6956522 65,39.8478261 L65,25.1521739 C65,11.3043478 53.6956522,0 39.8478261,0 Z M63.5869565,39.8478261 C63.5869565,52.9184783 52.9184783,63.5869565 39.8478261,63.5869565 L25.1521739,63.5869565 C12.0815217,63.5869565 1.41304348,52.9184783 1.41304348,39.8478261 L1.41304348,25.1521739 C1.41304348,12.0815217 12.0815217,1.41304348 25.1521739,1.41304348 L39.8478261,1.41304348 C52.9184783,1.41304348 63.5869565,12.0815217 63.5869565,25.1521739 L63.5869565,39.8478261 Z M59.3478261,39.5652174 C59.3478261,50.4456522 50.4456522,59.3478261 39.5652174,59.3478261 L25.4347826,59.3478261 C14.5543478,59.3478261 5.65217391,50.4456522 5.65217391,39.5652174 L5.65217391,25.4347826 C5.65217391,14.5543478 14.5543478,5.65217391 25.4347826,5.65217391 L39.5652174,5.65217391 C50.4456522,5.65217391 59.3478261,14.5543478 59.3478261,25.4347826 L59.3478261,39.5652174 Z" id="Shape" fill="#222222" fill-rule="nonzero"></path>
                                <path d="M43.2887475,20.0391531 C43.6096464,20.0429018 43.9248824,20.0897605 44.2287925,20.1928497 C45.0404779,20.4665047 45.706815,21.096286 46.0220509,21.8891357 C46.1485228,22.2077751 46.2127026,22.5432836 46.2259161,22.8844151 C46.3070846,29.2871919 46.4675341,35.6937175 46.2221408,42.0927456 C46.2032644,42.4095106 46.1390846,42.7187782 46.0220509,43.013051 C45.7256914,43.759042 45.1159835,44.3663311 44.3647026,44.660604 C44.0438037,44.7861854 43.7059161,44.8480389 43.3623655,44.8611593 C36.2138711,44.9511281 29.0597138,45.1291913 21.9168824,44.859285 C21.5978711,44.8386671 21.2864105,44.7768136 20.9881633,44.660604 C20.2368824,44.3663311 19.6271745,43.759042 19.330815,43.013051 C19.204343,42.6944117 19.1401633,42.3589032 19.1269498,42.0177716 C19.0457812,35.6149948 18.8853318,29.2084693 19.1307251,22.8094412 C19.1496015,22.4926762 19.2137812,22.1834085 19.330815,21.8891357 C19.6271745,21.1431447 20.2368824,20.5358556 20.9881633,20.2415828 C21.3090621,20.1160014 21.6469498,20.0522735 21.9905003,20.0391531 C29.0899161,19.9510587 36.1893318,20.0391531 43.2887475,20.0391531 Z M45.3500509,25.0661576 L20.0405678,25.0661576 C19.9575116,30.7266921 19.855579,36.389101 20.0726577,42.0458868 C20.0858711,42.2595627 20.1292869,42.4694898 20.2085678,42.6700451 C20.4105453,43.1761194 20.8258262,43.5884762 21.3354891,43.7890316 C21.5525678,43.8733773 21.7809723,43.9164873 22.0150397,43.9239847 C29.1389947,44.0139535 36.2686127,44.1920167 43.3887925,43.9221104 C43.6039835,43.9089899 43.8153992,43.8677543 44.0173768,43.7890316 C44.5270397,43.5884762 44.9423206,43.1761194 45.1442981,42.6700451 C45.2311296,42.4526206 45.2726577,42.2258244 45.2820959,41.9934051 C45.3538262,36.351614 45.4878487,30.7060743 45.3500509,25.0661576 Z M23.866815,41.9652898 C25.8337363,41.6522735 28.6765228,41.6204096 30.7038487,39.6073586 C31.541961,38.7751475 31.541961,37.4237418 30.7038487,36.5915307 C29.8657363,35.7593197 28.5047475,35.7593197 27.6666352,36.5915307 C25.6393093,38.6045817 26.0583655,40.758209 23.866815,41.9652898 Z M29.599579,35.0583131 C30.2545902,33.7125304 31.4400284,32.1024644 32.9916689,30.5617494 C36.0458711,27.5290524 39.370006,25.9039917 40.4100959,26.9348837 C41.4482981,27.9676501 39.8117138,31.268379 36.7575116,34.301076 C35.2115341,35.836168 33.5976015,37.0095106 32.2441633,37.6617841 C32.2233992,37.5155849 32.1913093,37.3693856 32.1497812,37.2269351 C32.0629498,36.9382853 31.9345902,36.6608816 31.7665902,36.4097188 C31.6797588,36.2803888 31.5816015,36.1604304 31.4796689,36.0423464 C31.3701857,35.9280111 31.3701857,35.9298855 31.2569273,35.8211732 C30.9813318,35.5868796 30.6849723,35.3900729 30.3470846,35.2551198 C30.1073543,35.1576536 29.8562981,35.0920514 29.599579,35.0583131 Z" fill="#FFFFFF"></path>
                            </g>
                        </g>
                    </g>
                </g>
            </g>
        </g>
    </g>
</svg>
